X:1
T:Quem vidistis, pastores
T:Hans Leo Haßler
T:Quem vidistis, pastores
T:CPDL - Creative Commons Attribution Non Commercial 3.0
T:CPDL - Creative Commons Attribution Non Commercial 3.0
T:CPDL - Creative Commons Attribution Non Commercial 3.0
T:CPDL - Creative Commons Attribution Non Commercial 3.0
T:CPDL - Creative Commons Attribution Non Commercial 3.0
T:CPDL - Creative Commons Attribution Non Commercial 3.0
T:CPDL - Creative Commons Attribution Non Commercial 3.0
T:CPDL - Creative Commons Attribution Non Commercial 3.0
C:Hans Leo Haßler
Z:CPDL - Creative Commons Attribution Non Commercial 3.0
%%score [ 1 2 3 4 ]
L:1/8
Q:1/2=90
M:4/2
K:D
V:1 treble nm="S"
V:2 treble nm="A"
V:3 treble-8 nm="T"
V:4 bass nm="B"
V:1
"^Eine Terz tiefer" z16 | z16 | z16 | z16 | z16 | B12 A4 | B4 E4 G8 | F8 E4 E2 F2 | %8
w: |||||Quem vi-|di- stis, pa-|sto- res? Di- *|
 G2 A2 B6 c2 d4- | d2 c2 B8 ^A4 | B4 F6 G2 A4 | F4 B8 A2 G2 | A4 F4 G6 A2 | B8 B8 | z16 | B12 A4 | %16
w: |* * * ci-|te, quem _ _|vi- di- stis, _|_ pa- sto- *|* res?||Quem vi-|
 B4 E4 G8 | F8 E4 E4- | E2 F2 G2 A2 B2 c2 d4- | d2 c2 B8 ^A4 | B4 F4 F4 ^G4 | A4 B4 =c8 | %22
w: di- stis, pa-|sto- res? Di-||* * * ci-|te, an- nun- ti-|a- te no-|
 B4 d4 =c4 B4 | A2 G2 F2 F2 E8 | z16 | z16 | z16 | z4 F4 F4 ^G4 | A4 B4 =c8 | B4 d4 =c4 B4 | %30
w: bis in ter- ris|quis ap- pa- ru- it,||||an- nun- ti-|a- te no-|bis, in ter- ris|
 A2 G2 G2 F2 G4 B4 | e4 d4 c2 B2 B2 ^A2 | B4 B8 B4 | c2 d2 e8 ^d4 | e2 B2 G3 B A2 G2 F4 | %35
w: quis ap- pa- ru- it, in|ter- ris quis ap- pa- ru-|it. Na- tum|vi- * * di-|mus, et cho- ros an- ge- lo-|
 E8 z2 B2 G3 B | A2 G2 F4 E4 F4- | F4 F4 G2 A2 B4- | B4 ^A4 B2 d2 B3 d | c2 c2 B6 ^A^G A4 | %40
w: rum, et cho- ros|an- ge- lo- rum, na-|* tum vi- * *|* di- mus et cho- ros|an- ge- lo- * * *|
[M:3/2] B4 B4 B4 | c8 d4 | c8 B4 | ^A4 B4 B4 | c8 B4 | B8 ^A4 |[M:4/2] B8 z8 | z16 | %48
w: rum col- lau-|dan- tes|Do- mi-|num, col- lau-|dan- tes|Do- mi-|num,||
[M:3/2] z4 E4 F4 | G8 F4 | E8 E4 | ^D4 E4 E4 | F8 E4 | E8 ^D4 |[M:4/2] E4 z2 G2 A3 B G3 A | %55
w: col- lau-|dan- tes|Do- mi-|num, col- lau-|dan- tes|Do- mi-|num. Al- le- * * *|
 F2 d2 =cBAG F2 E2 F2 F2 | E4 z2 B2 c3 d B3 c | ^A2 f2 edcB A2 B2 B2 A2 | B4 z2 E2 F3 G E3 F | %59
w: * lu- ja, _ _ _ _ al- le- lu-|ja, al- le- * * *|* lu- ja, _ _ _ _ al- le- lu-|ja, al- le- * * *|
 ^D2 B2 AGFE D2 E2 E2 D2 |[M:3/2] E4 B4 c4 | d8 c4 | B8 B4 | ^A4 B4 B4 | c8 B4 | B8 ^A4 | %66
w: * lu- ja, _ _ _ _ al- le- lu-|ja, col- lau-|dan- tes|Do- mi-|num, col- lau-|dan- tes|Do- mi-|
[M:4/2] B8 z8 | z16 | z4 z2 E2 F3 G E3 F | ^D2 B2 AGFE D2 E2 E2 D2 | E6 e2 =cBAG A2 A2 | ^G32 |] %72
w: num.||Al- le- * * *|* lu- ja, _ _ _ _ al- le- lu-|ja, al- le- * * * * lu-|ja.|
V:2
 z16 | z16 | z16 | z16 | z16 | z16 | z16 | z8 E8- | E4 D4 E4 B,4 | D8 C8 | B,4 B,2 C2 D2 E2 F2 E2 | %11
w: |||||||Quem|_ vi- di- stis,|pa- sto-|res? Di- * * * * *|
 D2 B,2 G6 F2 E4- | E4 ^D4 E4 G4- | G4 F4 G4 F2 E2 | F4 F4 E8 | D4 F8 F4 | E8 z4 E4- | %17
w: |* ci- te, quem|_ vi- di- * *|stis, pa- sto-|res? Di- ci-|te, di-|
 E4 ^D4 E4 =C4- | C4 =C4 B,8 | D6 E2 F4 F4 | ^D4 D4 D4 E4 | F2 D2 G6 FE F4 | G6 D2 E4 G4 | %23
w: * ci- te, di-|* ci- te,|di- * * ci-|te, an- nun- ti-|a- te no- * * *|bis in ter- ris|
 F2 E2 E2 ^D2 E4 G4 | E4 ^D4 E4 F4 | G8 F4 A4 | G4 F4 E2 D2 C2 C2 | B,4 ^D4 D4 E4 | %28
w: quis ap- pa- ru- it, an-|nun- ti- a- te|no- bis, in|ter- ris quis ap- pa- ru-|it, an- nun- ti-|
 E2 F2 G6 FE F4 | G4 G4 G4 G4 | E2 D2 E2 D2 B,4 D4 | G4 F4 A2 F2 G2 F2 | ^D4 F8 ^G4 | A12 F4 | %34
w: a- te no- * * *|bis * * *|||* Na- tum|vi- di-|
 G2 G2 E3 G F2 E2 ^D4 | E8 z2 B,2 E3 G | F2 E2 ^D4 E4 D4- | D4 ^D4 E8- | E4 E4 ^D2 F2 G3 A | %39
w: mus, * * * * * *||* * * * na-|* tum vi-|* di- mus et cho- ros|
 A4 F4 F8 |[M:3/2] ^D4 F4 ^G4 | A8 A4 | A8 F4 | F4 F4 ^G4 | A8 F4 | G8 F4 | %46
w: an- ge- lo-|rum * *||||||
[M:4/2] ^D6 =D2 E3 F D3 E | C2 A2 GFED C2 B,2 C2 C2 |[M:3/2] B,4 B,4 D4 | D8 D4 | B,8 A,4 | %51
w: * Al- le- * * *|* lu- ja, _ _ _ _ al- le- lu-|ja, * *|||
 B,4 B,4 C4 | D8 B,4 | =C8 B,4 |[M:4/2] B,4 z2 E2 F3 G E3 F | ^D2 B2 AGFE D2 E2 E2 D2 | %56
w: |||* Al- le- * * *|* lu- ja, _ _ _ _ al- le- lu-|
 E4 z2 ^G2 A4 =G4 | F2 A2 GFED C2 B,2 C2 C2 | ^D4 z2 B,2 =D4 =C4 | B,2 G2 E2 =C2 B,2 G,2 C2 B,2 | %60
w: ja, al- le- lu-|ja, al- le- * * * * * * lu-|ja, al- le- lu-|ja, al- le- lu- ja, al- le- lu-|
[M:3/2] B,4 ^G4 A4 | A8 A4 | F8 E4 | F4 F4 ^G4 | A8 F4 | G8 F4 |[M:4/2] ^D4 z2 =D2 E3 F D3 E | %67
w: ja, * *||||||num. Al- le- * * *|
 C2 A2 GFED C2 B,2 C2 C2 | ^D4 z2 B,2 =D4 =C4 | B,2 G2 E2 =C2 B,2 G,2 C2 B,2 | ^G,2 E2 GFED E6 E2 | %71
w: * lu- ja, _ _ _ _ al- le- lu-|ja, al- le- lu-|ja, al- le- lu- ja, al- le- lu-|ja, al- le- * * * * lu-|
 E32 |] %72
w: ja.|
V:3
 B12 A4 | B4 E4 G8 | F8 E4 E2 F2 | G2 A2 B6 c2 d4- | d2 c2 B8 ^A4 | B4 d8 c4 | d4 B8 A2 G2 | %7
w: Quem vi-|di- stis, pa-|sto- res? Di- *||* * * ci-|te, quem vi-|di- stis, _ _|
 A4 B4 G2 E2 =c4- | c4 B2 A2 G8 | F8 z8 | B12 A4 | B4 E4 G8 | F8 E4 E2 F2 | G2 A2 B6 c2 d4- | %14
w: _ pa- sto- * *||res?|Quem vi-|di- stis, pa-|sto- res? Di- *||
 d2 c2 B8 ^A4 | B4 d8 c2 d2 | B4 =c4 B4 A2 G2 | A4 B4 E4 A4 | A4 G2 F2 G4 F4 | B8 d4 c4 | %20
w: * * * ci-|te, quem _ _|_ vi- di- * *|stis, pas- sto- res?|Di- * * * ci-|te, di- ci-|
 B4 B4 B4 e4 | d4 B4 A8 | G4 B4 A4 E4 | F2 G2 A2 B2 E4 B4 | c4 B4 c2 A2 d4- | d2 cB c4 d6 A2 | %26
w: te, an- nun- ti-|a- te no-|bis in ter- ris|quis ap- pa- ru- it, an-|nun- ti- a- te no-|* * * * bis, in|
 B4 d4 c2 B2 B2 ^A2 | B4 B4 B4 B4 | e4 d4 e2 d2 =c4 | d4 B4 e4 d4 | =c2 B2 A2 A2 d6 d2 | %31
w: ter- ris quis ap- pa- ru-|it, an- nun- ti-|a- te no- * *|bis, in ter- ris|quis ap- pa- ru- it, in|
 B4 B4 e2 d2 c2 c2 | B4 ^d8 e4 | e2 d2 c2 B2 A6 A2 | B8 z4 z2 B2 | G3 B A2 G2 F4 E4 | z8 z4 B4- | %37
w: ter- ris quis ap- pa- ru-|it. Na- tum|vi- * * * * di-|mus, et|cho- ros an- ge- lo- rum,|na-|
 B4 B4 B2 A2 G2 F2 | E6 E2 F2 d2 d3 f | e4 d4 c8 |[M:3/2] B4 ^d4 e4 | e8 f4 | e8 d4 | c4 ^d4 e4 | %44
w: * tum vi- * * *|* di- mus et cho- ros|an- ge- lo-|rum col- lau-|dan- tes|Do- mi-|num, col- lau-|
 e8 ^d4 | e8 c4 |[M:4/2] B6 B2 c3 d B3 c | ^A2 f2 edcB A2 B2 B2 A2 |[M:3/2] B4 G4 A4 | B8 A4 | %50
w: dan- tes|Do- mi-|num. Al- le- * * *|* lu- ja, _ _ _ _ al- le- lu-|ja, col- lau-|dan- tes|
 G8 E4 | F4 ^G4 A4 | A8 ^G4 | A8 F4 |[M:4/2] ^G4 e4 d3 B =c3 A | B2 G2 A2 A2 B2 =c2 A2 B2 | %56
w: Do- mi-|num, col- lau-|dan- tes|Do- mi-|num. Al- le- * * *|* lu- ja, al- le- * * lu-|
 E4 z2 e2 e3 f d3 e | c2 d2 B2 g2 f2 ed e2 c2 | B4 z2 G2 A3 B G3 A | F2 d2 =cBAG F2 E2 F2 F2 | %60
w: ja, al- le- * * *|* lu- ja, al- le- * * * lu-|ja, al- le- * * *|* lu- ja, _ _ _ _ al- le- lu-|
[M:3/2] ^G4 e4 e4 | f8 e4 | d8 B4 | c4 ^d4 e4 | e8 ^d4 | e8 c4 |[M:4/2] B4 z2 B2 c3 d B3 c | %67
w: ja, col- lau-|dan- tes|Do- mi-|num, col- lau-|dan- tes|Do- mi-|num. Al- le- * * *|
 ^A2 f2 edcB A2 B2 B2 A2 | B4 z2 G2 A3 B G3 A | F2 d2 =cBAG F2 E2 F2 F2 | E6 E2 AB =c4 c2 | B32 |] %72
w: * lu- ja, _ _ _ _ al- le- lu-|ja, al- le- * * *|* lu- ja, _ _ _ _ al- le- lu-|ja, al- le- * * lu-|ja.|
V:4
 z16 | z16 | z8 E,8- | E,4 D,4 E,4 B,,4 | D,8 C,8 | B,,4 B,,2 C,2 D,2 E,2 F,2 E,2 | %6
w: ||Quem|_ vi- di- stis,|pa- sto-|res? Di- * * * * *|
 D,2 B,,2 G,6 F,2 E,4- | E,4 ^D,4 E,8 | z8 z4 B,,4- | B,,2 C,2 D,2 E,2 F,4 F,4 | B,,8 z8 | z16 | %12
w: |* ci- te,|di-|* * * * * ci-|te,||
 z8 E,8- | E,4 D,4 E,4 B,,4 | D,8 C,8 | B,,4 B,,2 C,2 D,2 E,2 F,2 D,2 | G,4 A,4 E,8 | %17
w: quem|_ vi- di- stis,|pa- sto-|res? Di- * * * * *|* ci- te,|
 z8 z4 A,,2 B,,2 | =C,2 D,2 E,8 B,,4 | G,8 F,6 F,2 | B,,8 z8 | z16 | z16 | z8 z4 E,4 | %24
w: di- *|* * * ci-|te, di- ci-|te,|||an-|
 A,4 B,4 A,4 F,4 | E,8 D,4 F,4 | E,4 B,,4 C,2 D,2 E,2 F,2 | B,,4 B,,4 B,4 E,4 | =C4 B,4 A,8 | %29
w: nun- ti- a- te|no- bis, in|ter- ris quis ap- pa- ru-|it, * * *||
 G,4 G,4 =C,4 G,,4 | A,,2 B,,2 =C,2 D,2 G,,4 G,4 | E,4 B,,4 C,2 D,2 E,2 F,2 | B,,4 B,8 E,4 | %33
w: |* * * * * in|ter- ris * * * *|* Na- tum|
 A,6 G,2 F,4 F,4 | E,8 z4 z2 B,,2 | E,3 G, F,2 E,2 ^D,4 E,4 | z8 z4 B,,4- | B,,4 B,,4 E,6 D,2 | %38
w: vi- * * di-|mus, *||na-|* tum vi- *|
 C,4 C,4 B,,2 B,2 G,3 D, | A,4 B,4 F,8 |[M:3/2] B,,4 B,4 E,4 | A,8 D,4 | A,8 B,4 | F,4 B,4 E,4 | %44
w: * di- mus, * * *||||||
 A,8 B,4 | E,8 F,4 |[M:4/2] B,,4 B,4 A,3 F, G,3 E, | F,2 D,2 E,2 E,2 F,2 G,2 E,2 F,2 | %48
w: ||* Al- le- * * *|* lu- ja, al- le- * * lu-|
[M:3/2] B,,4 E,4 D,4 | G,8 D,4 | E,8 =C,4 | B,,4 E,4 A,,4 | D,8 E,4 | A,,8 B,,4 |[M:4/2] E,8 z8 | %55
w: ja, * *|||||||
 z16 | z4 E,4 A,3 F, G,3 E, | F,2 D,2 E,2 E,2 F,2 G,2 E,2 F,2 | B,,4 E,4 D,3 B,, =C,3 A,, | %59
w: |Al- le- * * *|* lu- ja, al- le- * * lu-|ja, al- le- * * *|
 B,,2 G,,2 A,,2 A,,2 B,,2 =C,2 A,,2 B,,2 |[M:3/2] E,4 E,4 A,4 | D,8 A,4 | B,8 G,4 | F,4 B,4 E,4 | %64
w: * lu- ja, al- le- * * lu-|ja. * *||||
 A,8 B,4 | E,8 F,4 |[M:4/2] B,,4 B,4 A,3 F, G,3 E, | F,2 D,2 E,2 E,2 F,2 G,2 E,2 F,2 | %68
w: ||num. Al- le- * * *|* lu- ja, al- le- * * lu-|
 B,,4 E,4 D,3 B,, =C,3 A,, | B,,2 G,,2 A,,2 A,,2 B,,2 =C,2 A,,2 B,,2 | %70
w: ja, al- le- * * *|* lu- ja, al- le- * * lu-|
 E,2 G,2 E,D,=C,B,, A,,6 A,,2 | E,32 |] %72
w: ja. al- le- * * * * lu-|ja.|

